X: 2908
T: Braw Sir John
P: The Village Bells
C:Six Favourite Scotch Dances by Charles Bayne
R:Reel (8x32)
B:RSCDS 29-8
Z:Anselm Lingnau <anselm@strathspey.org>
M:4/4
L:1/8
K:G
D|"G"GGGG GBdB|cBgf edcB|"Am"cAAa agfg|edcB "D7"cAdB|
  "G"GGGG GBdB|cBgf edcB|"Am"cBcd efge|"D7"dBcA "G"G2||
d|"G"dddd dgfg|agfg edcB|"Am"cccc cgfg|"A7"agfe "D7"dcBA|
  "G"dddd dgfg|agfg edcB|"Am"ca"G"Bg "Am"Afge|"D7"dBcA "G"G2|]
%%center Book29/2908-Braw_Sir_John-AL.abc

%%sep 2 1 500
%%sep 1 1 500

